fa/svgs/regular/calendar-days.svg

<svg xmlns="http://www.w3.org/2000/svg" viewBox="0 0 448 512"><!--! Font Awesome Free 6.1.1 by @fontawesome - https://fontawesome.com License - https://fontawesome.com/license/free (Icons: CC BY 4.0, Fonts: SIL OFL 1.1, Code: MIT License) Copyright 2022 Fonticons, Inc.--><path d="M152 64h144V24c0-13.25 10.7-24 24-24s24 10.75 24 24v40h40c35.3 0 64 28.65 64 64v320c0 35.3-28.7 64-64 64H64c-35.35 0-64-28.7-64-64V128c0-35.35 28.65-64 64-64h40V24c0-13.25 10.7-24 24-24s24 10.75 24 24v40zM48 248h80v-56H48v56zm0 48v64h80v-64H48zm128 0v64h96v-64h-96zm144 0v64h80v-64h-80zm80-104h-80v56h80v-56zm0 216h-80v56h64c8.8 0 16-7.2 16-16v-40zm-128 0h-96v56h96v-56zm-144 0H48v40c0 8.8 7.16 16 16 16h64v-56zm144-216h-96v56h96v-56z"/></svg>

<svg xmlns="http://www.w3.org/2000/svg" viewBox="0 0 448 512"><!--! Font Awesome Free 6.2.1 by @fontawesome - https://fontawesome.com License - https://fontawesome.com/license/free (Icons: CC BY 4.0, Fonts: SIL OFL 1.1, Code: MIT License) Copyright 2022 Fonticons, Inc. --><path d="M152 64H296V24C296 10.75 306.7 0 320 0C333.3 0 344 10.75 344 24V64H384C419.3 64 448 92.65 448 128V448C448 483.3 419.3 512 384 512H64C28.65 512 0 483.3 0 448V128C0 92.65 28.65 64 64 64H104V24C104 10.75 114.7 0 128 0C141.3 0 152 10.75 152 24V64zM48 248H128V192H48V248zM48 296V360H128V296H48zM176 296V360H272V296H176zM320 296V360H400V296H320zM400 192H320V248H400V192zM400 408H320V464H384C392.8 464 400 456.8 400 448V408zM272 408H176V464H272V408zM128 408H48V448C48 456.8 55.16 464 64 464H128V408zM272 192H176V248H272V192z"/></svg>
